Newaita-dark/apps/32/google-chrome.svg

<?xml version="1.0" encoding="UTF-8"?>
<svg xmlns="http://www.w3.org/2000/svg" xmlns:xlink="http://www.w3.org/1999/xlink" width="32pt" height="32pt" viewBox="0 0 32 32" version="1.1">
<defs>
<radialGradient id="radial0" gradientUnits="userSpaceOnUse" cx="450.908936" cy="189.579361" fx="450.908936" fy="189.579361" r="21.166656" gradientTransform="matrix(0.00000017417,-0.0781325,-0.140638,-0.000000101539,44.523152,63.595329)">
<stop offset="0" style="stop-color:rgb(0%,0%,0%);stop-opacity:0.313725;"/>
<stop offset="0.222222" style="stop-color:rgb(0%,0%,0%);stop-opacity:0.27451;"/>
<stop offset="1" style="stop-color:rgb(0%,0%,0%);stop-opacity:0;"/>
</radialGradient>
<radialGradient id="radial1" gradientUnits="userSpaceOnUse" cx="450.908936" cy="189.579361" fx="450.908936" fy="189.579361" r="21.166656" gradientTransform="matrix(-0.00000017417,0.0781325,0.140638,0.000000101539,-12.770119,-7.527482)">
<stop offset="0" style="stop-color:rgb(0%,0%,0%);stop-opacity:0.313725;"/>
<stop offset="0.222222" style="stop-color:rgb(0%,0%,0%);stop-opacity:0.27451;"/>
<stop offset="1" style="stop-color:rgb(0%,0%,0%);stop-opacity:0;"/>
</radialGradient>
<radialGradient id="radial2" gradientUnits="userSpaceOnUse" cx="450.908936" cy="189.579361" fx="450.908936" fy="189.579361" r="21.166656" gradientTransform="matrix(-0.00000017417,-0.0781325,0.140638,-0.000000101539,-12.770119,63.595329)">
<stop offset="0" style="stop-color:rgb(0%,0%,0%);stop-opacity:0.313725;"/>
<stop offset="0.222222" style="stop-color:rgb(0%,0%,0%);stop-opacity:0.27451;"/>
<stop offset="1" style="stop-color:rgb(0%,0%,0%);stop-opacity:0;"/>
</radialGradient>
<radialGradient id="radial3" gradientUnits="userSpaceOnUse" cx="450.908936" cy="189.579361" fx="450.908936" fy="189.579361" r="21.166656" gradientTransform="matrix(0.00000017417,0.0781325,-0.140638,0.000000101539,44.52315,-7.527483)">
<stop offset="0" style="stop-color:rgb(0%,0%,0%);stop-opacity:0.313725;"/>
<stop offset="0.222222" style="stop-color:rgb(0%,0%,0%);stop-opacity:0.27451;"/>
<stop offset="1" style="stop-color:rgb(0%,0%,0%);stop-opacity:0;"/>
</radialGradient>
<linearGradient id="linear0" gradientUnits="userSpaceOnUse" x1="255.323059" y1="233.5" x2="255.323044" y2="254.666656" gradientTransform="matrix(0.0133601,0,0,0.062506,12.465386,13.438784)">
<stop offset="0" style="stop-color:rgb(0%,0%,0%);stop-opacity:0.27451;"/>
<stop offset="1" style="stop-color:rgb(0%,0%,0%);stop-opacity:0;"/>
</linearGradient>
<linearGradient id="linear1" gradientUnits="userSpaceOnUse" x1="179.916672" y1="233.5" x2="179.916672" y2="-62.833328" >
<stop offset="0" style="stop-color:rgb(29.803922%,68.627451%,31.372549%);stop-opacity:1;"/>
<stop offset="1" style="stop-color:rgb(40%,73.333333%,41.568627%);stop-opacity:1;"/>
</linearGradient>
<linearGradient id="linear2" gradientUnits="userSpaceOnUse" x1="960" y1="1215.118164" x2="960" y2="175.118134" >
<stop offset="0" style="stop-color:rgb(93.72549%,32.54902%,31.372549%);stop-opacity:1;"/>
<stop offset="1" style="stop-color:rgb(89.803922%,45.098039%,45.098039%);stop-opacity:1;"/>
</linearGradient>
<linearGradient id="linear3" gradientUnits="userSpaceOnUse" x1="1360" y1="1695.118164" x2="1360" y2="655.118103" >
<stop offset="0" style="stop-color:rgb(100%,65.490196%,14.901961%);stop-opacity:1;"/>
<stop offset="1" style="stop-color:rgb(100%,71.764706%,30.196078%);stop-opacity:1;"/>
</linearGradient>
<linearGradient id="linear4" gradientUnits="userSpaceOnUse" x1="254" y1="106.5" x2="254" y2="-41.666668" >
<stop offset="0" style="stop-color:rgb(87.843137%,87.843137%,87.843137%);stop-opacity:1;"/>
<stop offset="1" style="stop-color:rgb(93.333333%,93.333333%,93.333333%);stop-opacity:1;"/>
</linearGradient>
<linearGradient id="linear5" gradientUnits="userSpaceOnUse" x1="254" y1="85.333336" x2="254" y2="-20.5" >
<stop offset="0" style="stop-color:rgb(12.941176%,58.823529%,95.294118%);stop-opacity:1;"/>
<stop offset="1" style="stop-color:rgb(39.215686%,70.980392%,96.470588%);stop-opacity:1;"/>
</linearGradient>
</defs>
<g id="surface1">
<path style=" stroke:none;fill-rule:nonzero;fill:url(#radial0);" d="M 18.191406 28.035156 L 20.839844 28.035156 L 20.839844 26.710938 L 18.191406 26.710938 Z M 18.191406 28.035156 "/>
<path style=" stroke:none;fill-rule:nonzero;fill:url(#radial1);" d="M 13.5625 28.035156 L 10.914062 28.035156 L 10.914062 29.355469 L 13.5625 29.355469 Z M 13.5625 28.035156 "/>
<path style=" stroke:none;fill-rule:nonzero;fill:url(#radial2);" d="M 13.5625 28.035156 L 10.914062 28.035156 L 10.914062 26.710938 L 13.5625 26.710938 Z M 13.5625 28.035156 "/>
<path style=" stroke:none;fill-rule:nonzero;fill:url(#radial3);" d="M 18.191406 28.035156 L 20.839844 28.035156 L 20.839844 29.355469 L 18.191406 29.355469 Z M 18.191406 28.035156 "/>
<path style=" stroke:none;fill-rule:nonzero;fill:url(#linear0);" d="M 13.5625 27.703125 L 18.191406 27.703125 L 18.191406 29.355469 L 13.5625 29.355469 Z M 13.5625 27.703125 "/>
<path style="fill-rule:nonzero;fill:url(#linear1);stroke-width:3;stroke-linecap:round;stroke-linejoin:miter;stroke:rgb(12.941177%,12.941177%,12.941177%);stroke-opacity:1;stroke-miterlimit:4;" d="M 253.975747 -168.691922 C 365.027642 -168.691922 455.081542 -78.638022 455.081542 32.413873 C 455.081542 143.465768 365.027642 233.519669 253.975747 233.519669 C 142.923851 233.519669 52.932445 143.465768 52.932445 32.413873 C 52.932445 -78.638022 142.923851 -168.691922 253.975747 -168.691922 Z M 253.975747 -168.691922 " transform="matrix(0.062506,0,0,0.062506,0,13.438783)"/>
<path style="fill-rule:nonzero;fill:url(#linear2);stroke-width:11.338583;stroke-linecap:round;stroke-linejoin:miter;stroke:rgb(12.941177%,12.941177%,12.941177%);stroke-opacity:1;stroke-miterlimit:4;" d="M 959.908384 175.022665 C 669.384931 175.022665 417.834137 336.582049 290.051057 575.141957 L 719.931288 1055.096149 L 959.908384 1175.084697 L 959.908384 1215.002147 L 1240.039128 935.107601 L 1680.07587 1175.084697 L 1680.07587 1180.044854 C 1706.057642 1103.280527 1719.99332 1020.847449 1719.99332 935.107601 C 1719.99332 513.966694 1381.049291 175.022665 959.908384 175.022665 Z M 959.908384 175.022665 " transform="matrix(0.016538,0,0,0.016538,0,0)"/>
<path style="fill-rule:nonzero;fill:url(#linear3);stroke-width:11.338583;stroke-linecap:round;stroke-linejoin:miter;stroke:rgb(12.941177%,12.941177%,12.941177%);stroke-opacity:1;stroke-miterlimit:4;" d="M 959.908384 655.213055 L 1240.039128 935.107601 L 959.908384 1695.192537 L 961.325571 1695.192537 C 1381.521687 1695.192537 1719.99332 1356.248509 1719.99332 935.107601 C 1719.99332 839.683638 1702.514673 748.275039 1670.86415 664.424775 C 1668.265973 661.354201 1666.37639 658.283628 1665.1954 655.213055 Z M 959.908384 655.213055 " transform="matrix(0.016538,0,0,0.016538,0,0)"/>
<path style=" stroke:none;fill-rule:nonzero;fill:rgb(0%,0%,0%);fill-opacity:0.196078;" d="M 15.875 28.035156 C 8.914062 28.035156 3.308594 22.429688 3.308594 15.464844 C 3.308594 15.425781 3.308594 15.382812 3.308594 15.34375 C 3.375 22.246094 8.953125 27.789062 15.875 27.789062 C 22.796875 27.789062 28.378906 22.246094 28.445312 15.34375 C 28.445312 15.382812 28.445312 15.425781 28.445312 15.464844 C 28.445312 22.429688 22.839844 28.035156 15.875 28.035156 Z M 15.875 28.035156 "/>
<path style=" stroke:none;fill-rule:nonzero;fill:rgb(100%,100%,100%);fill-opacity:0.352941;" d="M 15.875 2.894531 C 8.914062 2.894531 3.308594 8.5 3.308594 15.464844 C 3.308594 15.507812 3.308594 15.546875 3.308594 15.589844 C 3.375 8.683594 8.953125 3.140625 15.875 3.140625 C 22.796875 3.140625 28.378906 8.683594 28.445312 15.589844 C 28.445312 15.546875 28.445312 15.507812 28.445312 15.464844 C 28.445312 8.5 22.839844 2.894531 15.875 2.894531 Z M 15.875 2.894531 "/>
<path style="fill-rule:nonzero;fill:url(#linear4);stroke-width:3;stroke-linecap:round;stroke-linejoin:miter;stroke:rgb(12.941177%,12.941177%,12.941177%);stroke-opacity:1;stroke-miterlimit:4;" d="M 253.975747 -41.641555 C 294.909338 -41.641555 328.093669 -8.519718 328.093669 32.413873 C 328.093669 73.347464 294.909338 106.469301 253.975747 106.469301 C 213.10465 106.469301 179.920318 73.347464 179.920318 32.413873 C 179.920318 -8.519718 213.10465 -41.641555 253.975747 -41.641555 Z M 253.975747 -41.641555 " transform="matrix(0.062506,0,0,0.062506,0,13.438783)"/>
<path style="fill-rule:nonzero;fill:url(#linear5);stroke-width:3;stroke-linecap:round;stroke-linejoin:miter;stroke:rgb(12.941177%,12.941177%,12.941177%);stroke-opacity:1;stroke-miterlimit:4;" d="M 253.975747 -20.518572 C 283.222954 -20.518572 306.908192 3.166666 306.908192 32.413873 C 306.908192 61.66108 283.222954 85.346318 253.975747 85.346318 C 224.791034 85.346318 201.105795 61.66108 201.105795 32.413873 C 201.105795 3.166666 224.791034 -20.518572 253.975747 -20.518572 Z M 253.975747 -20.518572 " transform="matrix(0.062506,0,0,0.062506,0,13.438783)"/>
<path style=" stroke:none;fill-rule:nonzero;fill:rgb(12.941177%,12.941177%,12.941177%);fill-opacity:1;" d="M 15.875 2.800781 C 8.863281 2.800781 3.214844 8.453125 3.214844 15.464844 C 3.214844 22.476562 8.863281 28.128906 15.875 28.128906 C 22.890625 28.128906 28.539062 22.476562 28.539062 15.464844 C 28.539062 8.453125 22.890625 2.800781 15.875 2.800781 Z M 15.875 2.988281 C 22.789062 2.988281 28.351562 8.550781 28.351562 15.464844 C 28.351562 22.378906 22.789062 27.941406 15.875 27.941406 C 8.964844 27.941406 3.402344 22.378906 3.402344 15.464844 C 3.402344 8.550781 8.964844 2.988281 15.875 2.988281 Z M 15.875 2.988281 "/>
</g>
</svg>

<svg xmlns="http://www.w3.org/2000/svg" width="32pt" height="32pt" viewBox="0 0 32 32"><defs><radialGradient id="a" gradientUnits="userSpaceOnUse" cx="450.909" cy="189.579" fx="450.909" fy="189.579" r="21.167" gradientTransform="matrix(0 -.07813 -.14064 0 44.523 63.595)"><stop offset="0" stop-opacity=".314"/><stop offset=".222" stop-opacity=".275"/><stop offset="1" stop-opacity="0"/></radialGradient><radialGradient id="b" gradientUnits="userSpaceOnUse" cx="450.909" cy="189.579" fx="450.909" fy="189.579" r="21.167" gradientTransform="matrix(0 .07813 .14064 0 -12.77 -7.527)"><stop offset="0" stop-opacity=".314"/><stop offset=".222" stop-opacity=".275"/><stop offset="1" stop-opacity="0"/></radialGradient><radialGradient id="c" gradientUnits="userSpaceOnUse" cx="450.909" cy="189.579" fx="450.909" fy="189.579" r="21.167" gradientTransform="matrix(0 -.07813 .14064 0 -12.77 63.595)"><stop offset="0" stop-opacity=".314"/><stop offset=".222" stop-opacity=".275"/><stop offset="1" stop-opacity="0"/></radialGradient><radialGradient id="d" gradientUnits="userSpaceOnUse" cx="450.909" cy="189.579" fx="450.909" fy="189.579" r="21.167" gradientTransform="matrix(0 .07813 -.14064 0 44.523 -7.527)"><stop offset="0" stop-opacity=".314"/><stop offset=".222" stop-opacity=".275"/><stop offset="1" stop-opacity="0"/></radialGradient><linearGradient id="e" gradientUnits="userSpaceOnUse" x1="255.323" y1="233.5" x2="255.323" y2="254.667" gradientTransform="matrix(.01336 0 0 .0625 12.465 13.439)"><stop offset="0" stop-opacity=".275"/><stop offset="1" stop-opacity="0"/></linearGradient><linearGradient id="f" gradientUnits="userSpaceOnUse" x1="179.917" y1="233.5" x2="179.917" y2="-62.833"><stop offset="0" stop-color="#4caf50"/><stop offset="1" stop-color="#66bb6a"/></linearGradient><linearGradient id="g" gradientUnits="userSpaceOnUse" x1="960" y1="1215.118" x2="960" y2="175.118"><stop offset="0" stop-color="#ef5350"/><stop offset="1" stop-color="#e57373"/></linearGradient><linearGradient id="h" gradientUnits="userSpaceOnUse" x1="1360" y1="1695.118" x2="1360" y2="655.118"><stop offset="0" stop-color="#ffa726"/><stop offset="1" stop-color="#ffb74d"/></linearGradient><linearGradient id="i" gradientUnits="userSpaceOnUse" x1="254" y1="106.5" x2="254" y2="-41.667"><stop offset="0" stop-color="#e0e0e0"/><stop offset="1" stop-color="#eee"/></linearGradient><linearGradient id="j" gradientUnits="userSpaceOnUse" x1="254" y1="85.333" x2="254" y2="-20.5"><stop offset="0" stop-color="#2196f3"/><stop offset="1" stop-color="#64b5f6"/></linearGradient></defs><path d="M18.191 28.035h2.649v-1.324H18.19zm0 0" fill="url(#a)"/><path d="M13.563 28.035h-2.649v1.32h2.649zm0 0" fill="url(#b)"/><path d="M13.563 28.035h-2.649v-1.324h2.649zm0 0" fill="url(#c)"/><path d="M18.191 28.035h2.649v1.32H18.19zm0 0" fill="url(#d)"/><path d="M13.563 27.703h4.628v1.652h-4.628zm0 0" fill="url(#e)"/><path d="M253.976-168.692c111.052 0 201.106 90.054 201.106 201.106 0 111.052-90.054 201.106-201.106 201.106-111.052 0-201.044-90.054-201.044-201.106 0-111.052 89.992-201.106 201.044-201.106zm0 0" transform="matrix(.0625 0 0 .0625 0 13.439)" fill="url(#f)" stroke-width="3" stroke-linecap="round" stroke="#212121"/><path d="M959.908 175.023c-290.523 0-542.074 161.559-669.857 400.119l429.88 479.954 239.977 119.989v39.917l280.131-279.894 440.037 239.977v4.96c25.982-76.764 39.917-159.198 39.917-244.937 0-421.141-338.944-760.085-760.085-760.085zm0 0" transform="rotate(.891) scale(.01654)" fill="url(#g)" stroke-width="11.339" stroke-linecap="round" stroke="#212121"/><path d="M959.908 655.213l280.131 279.895-280.13 760.085h1.417c420.196 0 758.667-338.944 758.667-760.085 0-95.424-17.478-186.833-49.129-270.683-2.598-3.07-4.488-6.141-5.669-9.212zm0 0" transform="rotate(.891) scale(.01654)" fill="url(#h)" stroke-width="11.339" stroke-linecap="round" stroke="#212121"/><path d="M15.875 28.035a12.54 12.54 0 0 1-12.566-12.57v-.121a12.542 12.542 0 0 0 12.566 12.445 12.545 12.545 0 0 0 12.57-12.445v.12c0 6.966-5.605 12.571-12.57 12.571zm0 0" fill-opacity=".196"/><path d="M15.875 2.895A12.54 12.54 0 0 0 3.309 15.59 12.543 12.543 0 0 1 15.875 3.14a12.546 12.546 0 0 1 12.57 12.45v-.125c0-6.965-5.605-12.57-12.57-12.57zm0 0" fill="#fff" fill-opacity=".353"/><path d="M253.976-41.642c40.933 0 74.118 33.122 74.118 74.056 0 40.933-33.185 74.055-74.118 74.055-40.871 0-74.056-33.122-74.056-74.055 0-40.934 33.185-74.056 74.056-74.056zm0 0" transform="matrix(.0625 0 0 .0625 0 13.439)" fill="url(#i)" stroke-width="3" stroke-linecap="round" stroke="#212121"/><path d="M253.976-20.519c29.247 0 52.932 23.686 52.932 52.933s-23.685 52.932-52.932 52.932c-29.185 0-52.87-23.685-52.87-52.932 0-29.247 23.685-52.933 52.87-52.933zm0 0" transform="matrix(.0625 0 0 .0625 0 13.439)" fill="url(#j)" stroke-width="3" stroke-linecap="round" stroke="#212121"/><path d="M15.875 2.8a12.638 12.638 0 0 0-12.66 12.665 12.638 12.638 0 0 0 12.66 12.664 12.64 12.64 0 0 0 12.664-12.664A12.64 12.64 0 0 0 15.875 2.8zm0 .188a12.447 12.447 0 0 1 12.477 12.477A12.447 12.447 0 0 1 15.875 27.94 12.446 12.446 0 0 1 3.402 15.465 12.446 12.446 0 0 1 15.875 2.988zm0 0" fill="#212121"/></svg>
